Adwaita++/actions/22/go-down.svg

<svg fill="none" height="22" viewBox="0 0 22 22" width="22" xmlns="http://www.w3.org/2000/svg">
  <g fill="#444">
    <path d="m18.9997 17.8331v-2.6666h-15.9997v2.6666z"/>
    <path d="m11.0001 14.4165-7.62486-7.62487c-.26115-.26116-.37499-.6175-.37499-.95832v-1.33331h1.33331c.34082 0 .69716.11386.95832.37499l5.70822 5.70821 5.7083-5.70821c.2611-.26115.6175-.37499.9583-.37499h1.3333v1.33331c0 .34082-.1139.69716-.375.95832z"/>
  </g>
</svg>

<svg xmlns="http://www.w3.org/2000/svg" fill="none" width="22" height="22" viewBox="0 0 22 22">
 <path fill="#444" d="M18.9997 17.8331V15.1665H3V17.8331H18.9997Z"/>
 <path fill="#444" d="M11.0001 14.4165L3.37524 6.79163C3.11409 6.53047 3.00025 6.17413 3.00025 5.83331V4.5H4.33356C4.67438 4.5 5.03072 4.61386 5.29188 4.87499L11.0001 10.5832L16.7084 4.87499C16.9695 4.61384 17.3259 4.5 17.6667 4.5H19V5.83331C19 6.17413 18.8861 6.53047 18.625 6.79163L11.0001 14.4165Z"/>
</svg>
